icons/calendar-date-24.svg

<svg
  xmlns="http://www.w3.org/2000/svg"
  viewBox="0 0 500 500"
  width="500"
  height="500"
  fill="#ffffff"
>
  <path d="M382.5 47.2h-16.7V5h-24.4v42.2H158.6V5h-24.4v42.2h-16.7a91.5 91.5 0 0 0-91.4 91.4v265a91.5 91.5 0 0 0 91.4 91.4h265a91.5 91.5 0 0 0 91.4-91.4v-265a91.5 91.5 0 0 0-91.4-91.4zm67 356.4a67.1 67.1 0 0 1-67 67h-265a67.1 67.1 0 0 1-67-67v-265c0-2.2.1-4.3.3-6.4h398.4c.2 2.1.3 4.2.3 6.4z" />
  <path
    data-name="2"
    d="M139.2 373.5l16.5-15.1c43.3-41.8 70.9-72.5 70.9-110.5 0-29.4-18.7-59.7-63-59.7a90.3 90.3 0 0 0-58.2 20.8l8.8 19.7c9.5-8 25-17.5 43.7-17.5 30.7 0 40.8 19.3 40.8 40.2-.3 31-24 57.6-76.5 107.6l-21.9 21.2v17.1h131.3v-23.1h-92.4z"
  />
  <path
    data-name="4"
    d="M374.9 191.6h-30l-91.8 131.3v18.4h95.6v56h26.2v-56h28.8v-21.9h-28.8zm-26.2 59.2v68.6h-67.4v-.6l50.3-69.9c5.7-9.5 10.7-18.4 17.1-30.4h.9c-.6 10.8-.9 21.5-.9 32.3z"
  />
</svg>

<svg xmlns="http://www.w3.org/2000/svg" viewBox="0 0 500 500">
  <g id="calendar-date-24">
    <path id="outline" d="M382.5,47.2H365.8V5H341.4V47.2H158.6V5H134.2V47.2H117.5a91.5,91.5,0,0,0-91.4,91.4v265A91.5,91.5,0,0,0,117.5,495h265a91.5,91.5,0,0,0,91.4-91.4v-265A91.5,91.5,0,0,0,382.5,47.2Zm67,356.4a67.1,67.1,0,0,1-67,67h-265a67.1,67.1,0,0,1-67-67v-265c0-2.2.1-4.3.3-6.4H449.2c.2,2.1.3,4.2.3,6.4Z"/>
    <path id="_2" data-name="2" d="M139.2,373.5l16.5-15.1c43.3-41.8,70.9-72.5,70.9-110.5,0-29.4-18.7-59.7-63-59.7A90.3,90.3,0,0,0,105.4,209l8.8,19.7c9.5-8,25-17.5,43.7-17.5,30.7,0,40.8,19.3,40.8,40.2-.3,31-24,57.6-76.5,107.6l-21.9,21.2v17.1H231.6V374.2H139.2Z"/>
    <path id="_4" data-name="4" d="M374.9,191.6h-30L253.1,322.9v18.4h95.6v56h26.2v-56h28.8V319.4H374.9Zm-26.2,59.2v68.6H281.3v-.6l50.3-69.9c5.7-9.5,10.7-18.4,17.1-30.4h.9C349,229.3,348.7,240,348.7,250.8Z"/>
  </g>
</svg>
